X:1
T:Title
%%score ( 1 2 3 ) { 4 | ( 5 6 ) }
L:1/8
Q:1/4=108
M:4/4
K:Bb
V:1 treble nm="Grand Piano, Staff"
V:2 treble 
V:3 treble 
V:4 bass nm="Choir Pad, St. Drostane, LM"
V:5 bass 
V:6 bass 
V:1
 F2 B2 F2 [EB]2 | [Ec]2 [Dd]2- [Dd][Ec] [DB]2 | F2 [Fe]2 [Fd]2 [Fc]2 | %3
w: By~John~Bacchus~Dykes,~1862 * * *|||
 [Fc]2 [=Ec]2- [Ec][CE] [CF]2 | [CF]2 [CF]2 [B,F]2 [B,E]2 | [B,F]2 [CG]2 [CG]2 [CF]2 | %6
w: |||
 z2 B2 F2 z2 | z2 .F4 z2 | z8 |] %9
w: |||
V:2
 x8 | x8 | x8 | x8 | x8 | x8 | [FA]2 FE DC [B,G]2 | [B,D]2 D2 z E [B,D]2- | [B,D]6 z2 |] %9
V:3
 x8 | x8 | x8 | x8 | x8 | x8 | x8 | z4 C2 z2 | x8 |] %9
V:4
 F,2 B,2 B,2 G,F, | G,A, B,2- B,F, F,2 | B,2 C2 B,2 A,2 | G,A, B,2- B,G, A,2 | A,2 F,2 _A,2 G,2 | %5
 G,2 G,2 B,2 A,2 | C2 .B,4 G,2 | B,2 B,2 A,F, F,2- | F,6 z2 |] %9
V:5
 z4 D,2 E,2 | C,2 B,,2- B,,B,, B,,2 | D,2 A,,2 B,,2 C,2 | C,2 C,2- C,C, F,2 | F,2 D,2 D,2 E,2 | %5
 E,2 =E,2 E,2 F,2 | F,=E,D,C, z _A, _E,2 | G,2 F,2 F,,2 B,,2- | B,,6 z2 |] %9
V:6
 x8 | x8 | x8 | x8 | x8 | x8 | z4 B,,2 z2 | x8 | x8 |] %9

